X:264
T:Hardiman the Fiddler
M:9/8
L:1/8
R:Slip Jig
K:ADor
|:A2G FDE F2G|AAA AGA cAG|A2G FDE F2G|Add ded cAG:|
Add d2e f3|Add ded cAG|Add d2e f2g|agf ged cAG|
Add d2e f3|Add ded cAG|dcA cde f2g|agf ged cAG|
